assets/illustrations/multisize/48/ppsx.svg

<?xml version="1.0" encoding="utf-8"?>
<!-- Generator: Adobe Illustrator 21.1.0, SVG Export Plug-In . SVG Version: 6.00 Build 0)  -->
<svg version="1.1" xmlns="http://www.w3.org/2000/svg" xmlns:xlink="http://www.w3.org/1999/xlink" x="0px" y="0px"
	 viewBox="0 0 48 48" enable-background="new 0 0 48 48" xml:space="preserve">
<g id="TEMPLATE" display="none">
	<g display="inline">
		<path fill="#D0D0D0" d="M48,0v48H0V0H48 M49-1h-1H0h-1v1v48v1h1h48h1v-1V0V-1L49-1z"/>
	</g>
	<g display="inline" opacity="0.1">
		<path fill="#FF3A6D" d="M45,3v42H3V3H45 M48,0H0v48h48V0L48,0z"/>
	</g>
</g>
<g id="ICONS">
	<polygon fill="#FFFFFF" points="34.0005,3 12,3 12,7 5,7 4,7 4,8 5,8 5,26 13,26 13,29 10,29 10,30 13,30 13,33 8,38 8,40 12,36 
		12,45 14,45 14,44 17,44 17,45 44,45 44,13 	"/>
	<path fill="#949494" d="M44,13L34.0005,3H12v4h1V4h20v10h10v30H17v1h27V13z M34,13V4.5l8.5,8.5H34z"/>
	<g>
		<g>
			<rect x="5.5" y="7.5" fill="#FFFFFF" width="23" height="18"/>
		</g>
		<g>
			<path fill="#808080" d="M28,8v17H6V8H28 M29,7H5v19h24V7L29,7z"/>
		</g>
	</g>
	<rect x="4" y="7" fill="#808080" width="26" height="1"/>
	<rect x="16" y="25" fill="#808080" width="1" height="5"/>
	<rect x="8" y="11" fill="#C8C8C8" width="2" height="11"/>
	<rect x="12" y="13" fill="#F5BA9D" width="2" height="9"/>
	<rect x="16" y="15" fill="#C8C8C8" width="2" height="7"/>
	<rect x="20" y="17" fill="#F5BA9D" width="2" height="5"/>
	<rect x="24" y="19" fill="#C8C8C8" width="2" height="3"/>
	<polygon fill="#D04727" points="18,38 13,33 8,38 8,40 12,36 12,45 14,45 14,36 18,40 	"/>
	<rect x="10" y="29" fill="#808080" width="13" height="1"/>
	<linearGradient id="SVGID_1_" gradientUnits="userSpaceOnUse" x1="38" y1="16.9063" x2="38" y2="14.0875">
		<stop  offset="0" style="stop-color:#828282;stop-opacity:0"/>
		<stop  offset="0.2812" style="stop-color:#7F7F7F;stop-opacity:0.0281"/>
		<stop  offset="0.4503" style="stop-color:#777777;stop-opacity:0.045"/>
		<stop  offset="0.5899" style="stop-color:#696969;stop-opacity:0.059"/>
		<stop  offset="0.7133" style="stop-color:#545454;stop-opacity:0.0713"/>
		<stop  offset="0.8259" style="stop-color:#3A3A3A;stop-opacity:0.0826"/>
		<stop  offset="0.9294" style="stop-color:#1A1A1A;stop-opacity:0.0929"/>
		<stop  offset="1" style="stop-color:#000000;stop-opacity:0.1"/>
	</linearGradient>
	<rect x="33" y="14" fill="url(#SVGID_1_)" width="10" height="3"/>
	<linearGradient id="SVGID_2_" gradientUnits="userSpaceOnUse" x1="31.27" y1="12.23" x2="37.2361" y2="6.2639">
		<stop  offset="0" style="stop-color:#FFFFFF;stop-opacity:0"/>
		<stop  offset="0.8537" style="stop-color:#FFFFFF;stop-opacity:0.2134"/>
		<stop  offset="1" style="stop-color:#FFFFFF;stop-opacity:0.25"/>
	</linearGradient>
	<polygon fill="url(#SVGID_2_)" points="12,3 12,4 33,4 33,14 43,14 43,28 44,28 44,13 34,3 	"/>
	<linearGradient id="SVGID_3_" gradientUnits="userSpaceOnUse" x1="8.2008" y1="3.718" x2="41.7979" y2="46.7204">
		<stop  offset="0" style="stop-color:#FFFFFF;stop-opacity:0"/>
		<stop  offset="0.2264" style="stop-color:#FCFCFC;stop-opacity:0.0226"/>
		<stop  offset="0.3626" style="stop-color:#F4F4F4;stop-opacity:0.0363"/>
		<stop  offset="0.475" style="stop-color:#E6E6E6;stop-opacity:0.0475"/>
		<stop  offset="0.5744" style="stop-color:#D1D1D1;stop-opacity:0.0574"/>
		<stop  offset="0.6652" style="stop-color:#B7B7B7;stop-opacity:0.0665"/>
		<stop  offset="0.7498" style="stop-color:#979797;stop-opacity:0.075"/>
		<stop  offset="0.8297" style="stop-color:#707070;stop-opacity:0.083"/>
		<stop  offset="0.9057" style="stop-color:#444444;stop-opacity:0.0906"/>
		<stop  offset="0.9761" style="stop-color:#121212;stop-opacity:0.0976"/>
		<stop  offset="1" style="stop-color:#000000;stop-opacity:0.1"/>
	</linearGradient>
	<polygon fill="url(#SVGID_3_)" points="34.0005,3 12,3 12,7 5,7 4,7 4,8 5,8 5,26 13,26 13,29 10,29 10,30 13,30 13,33 8,38 8,40 
		12,36 12,45 14,45 14,44 17,44 17,45 44,45 44,13 	"/>
</g>
</svg>

<svg id="4db648ed-2747-4057-8b80-c0879b96b143" data-name="ICONS" xmlns="http://www.w3.org/2000/svg" xmlns:xlink="http://www.w3.org/1999/xlink" viewBox="0 0 48 48"><defs><linearGradient id="ab76733c-eeec-4cf9-97a7-23abcd7393f1" x1="38" y1="16.90625" x2="38" y2="14.08751" gradientUnits="userSpaceOnUse"><stop offset="0" stop-color="#828282" stop-opacity="0"/><stop offset="0.86247" stop-color="#303030" stop-opacity="0.06315"/><stop offset="1" stop-opacity="0.1"/></linearGradient><linearGradient id="ef319fcc-00e8-4bbb-832e-e39baa44d073" x1="31.27" y1="12.23" x2="37.23606" y2="6.26394" gradientUnits="userSpaceOnUse"><stop offset="0" stop-color="#fff" stop-opacity="0"/><stop offset="0.44604" stop-color="#fff" stop-opacity="0.00799"/><stop offset="0.63551" stop-color="#fff" stop-opacity="0.03616"/><stop offset="0.77636" stop-color="#fff" stop-opacity="0.08493"/><stop offset="0.8924" stop-color="#fff" stop-opacity="0.15385"/><stop offset="0.99328" stop-color="#fff" stop-opacity="0.24291"/><stop offset="1" stop-color="#fff" stop-opacity="0.25"/></linearGradient><linearGradient id="b1e68834-1b19-4e76-b0b6-a48dd8173d37" x1="8.20076" y1="3.71801" x2="41.79794" y2="46.72044" gradientUnits="userSpaceOnUse"><stop offset="0" stop-color="#fff" stop-opacity="0"/><stop offset="0.86247" stop-color="#5e5e5e" stop-opacity="0.06315"/><stop offset="1" stop-opacity="0.1"/></linearGradient></defs><title>FileTypeIcons_Master_All_NEW</title><polygon points="34 3 12 3 12 7 5 7 4 7 4 8 5 8 5 26 13 26 13 29 10 29 10 30 13 30 13 33 8 38 8 40 12 36 12 45 14 45 14 44 17 44 17 45 44 45 44 13 34 3" fill="#fff"/><path d="M44,13,34.00049,3H12V7h1V4H33V14H43V44H17v1H44ZM34,13V4.5L42.5,13Z" fill="#949494"/><rect x="5.5" y="7.5" width="23" height="18" fill="#fff"/><path d="M28,8V25H6V8H28m1-1H5V26H29V7Z" fill="gray"/><rect x="4" y="7" width="26" height="1" fill="gray"/><rect x="16" y="25" width="1" height="5" fill="gray"/><rect x="8" y="11" width="2" height="11" fill="#c8c8c8"/><rect x="12" y="13" width="2" height="9" fill="#f5ba9d"/><rect x="16" y="15" width="2" height="7" fill="#c8c8c8"/><rect x="20" y="17" width="2" height="5" fill="#f5ba9d"/><rect x="24" y="19" width="2" height="3" fill="#c8c8c8"/><polygon points="18 38 13 33 8 38 8 40 12 36 12 45 14 45 14 36 18 40 18 38" fill="#d04727"/><rect x="10" y="29" width="13" height="1" fill="gray"/><rect x="33" y="14" width="10" height="3" fill="url(#ab76733c-eeec-4cf9-97a7-23abcd7393f1)"/><polygon points="12 3 12 4 33 4 33 14 43 14 43 28 44 28 44 13 34 3 12 3" fill="url(#ef319fcc-00e8-4bbb-832e-e39baa44d073)"/><polygon points="34 3 12 3 12 7 5 7 4 7 4 8 5 8 5 26 13 26 13 29 10 29 10 30 13 30 13 33 8 38 8 40 12 36 12 45 14 45 14 44 17 44 17 45 44 45 44 13 34 3" fill="url(#b1e68834-1b19-4e76-b0b6-a48dd8173d37)"/></svg>
